X: 7564
T: Cockerel In The Creel, The
R: reel
M: 4/4
K: Gmajor
g2 ed B2 AG|BddG GGBd|g2 ed B2 AG|AAAB deef|
g2 ed B2 AG|BddG GGAB|~d2 Bd eBdB|BABd ~e2 de||
g2 ag aaag|eaaf gagd|eaag a2 ag|egfd eeeg|
e2 de AAAB|edBA ~G2 GB|dBaf gfed|BABd ~e3 g||
Aeed deed|BGGB eBdB|Aeed deed|BABd ~e3 g|
ea ~a2 aeef|gefd efge|~d2 Bd eBdB|BABd ~e2 de||
g3 f egge|faef gefd|AaAa aAaf|gefd eeeg|
faAa aeef|gefd efge|~d2 Bd eBdB|BABd ~e2 de||

